assets/grua.svg

<svg width="108" height="78" viewBox="0 0 108 78" fill="none" xmlns="http://www.w3.org/2000/svg">
<path d="M0 63.375V43.875H40.2545L9.81818 19.9875V34.125H0V4.875H4.90909L58.9091 34.3688V0H83.4545L108 29.25V63.375H95.7273C95.7273 67.4375 94.2955 70.8906 91.4318 73.7344C88.5682 76.5781 85.0909 78 81 78C76.9091 78 73.4318 76.5781 70.5682 73.7344C67.7045 70.8906 66.2727 67.4375 66.2727 63.375H39.2727C39.2727 67.4375 37.8409 70.8906 34.9773 73.7344C32.1136 76.5781 28.6364 78 24.5455 78C20.4545 78 16.9773 76.5781 14.1136 73.7344C11.25 70.8906 9.81818 67.4375 9.81818 63.375H0ZM24.5455 70.6875C26.6727 70.6875 28.4318 69.9969 29.8227 68.6156C31.2136 67.2344 31.9091 65.4875 31.9091 63.375C31.9091 61.2625 31.2136 59.5156 29.8227 58.1344C28.4318 56.7531 26.6727 56.0625 24.5455 56.0625C22.4182 56.0625 20.6591 56.7531 19.2682 58.1344C17.8773 59.5156 17.1818 61.2625 17.1818 63.375C17.1818 65.4875 17.8773 67.2344 19.2682 68.6156C20.6591 69.9969 22.4182 70.6875 24.5455 70.6875ZM81 70.6875C83.1273 70.6875 84.8864 69.9969 86.2773 68.6156C87.6682 67.2344 88.3636 65.4875 88.3636 63.375C88.3636 61.2625 87.6682 59.5156 86.2773 58.1344C84.8864 56.7531 83.1273 56.0625 81 56.0625C78.8727 56.0625 77.1136 56.7531 75.7227 58.1344C74.3318 59.5156 73.6364 61.2625 73.6364 63.375C73.6364 65.4875 74.3318 67.2344 75.7227 68.6156C77.1136 69.9969 78.8727 70.6875 81 70.6875ZM68.7273 29.25H95.2364L78.7909 9.75H68.7273V29.25Z" fill="#008756"/>
</svg>

<svg xmlns="http://www.w3.org/2000/svg" width="108" height="78" fill="none"><path fill="#008756" d="M0 63.375v-19.5h40.255L9.817 19.988v14.137H0V4.875h4.91l54 29.494V0h24.544L108 29.25v34.125H95.727c0 4.063-1.431 7.516-4.295 10.36C88.568 76.577 85.09 78 81 78c-4.09 0-7.568-1.422-10.432-4.266-2.864-2.843-4.295-6.296-4.295-10.359h-27c0 4.063-1.432 7.516-4.296 10.36C32.114 76.577 28.637 78 24.546 78c-4.091 0-7.569-1.422-10.432-4.266-2.864-2.843-4.296-6.296-4.296-10.359H0Zm24.546 7.313c2.127 0 3.886-.691 5.277-2.072 1.39-1.382 2.086-3.129 2.086-5.241 0-2.112-.695-3.86-2.086-5.24-1.391-1.382-3.15-2.072-5.277-2.072-2.128 0-3.887.69-5.278 2.071-1.39 1.382-2.086 3.129-2.086 5.241 0 2.112.695 3.86 2.086 5.24 1.391 1.382 3.15 2.073 5.277 2.073Zm56.454 0c2.127 0 3.886-.691 5.277-2.072 1.391-1.382 2.087-3.129 2.087-5.241 0-2.112-.696-3.86-2.087-5.24-1.39-1.382-3.15-2.072-5.277-2.072-2.127 0-3.886.69-5.277 2.071-1.391 1.382-2.087 3.129-2.087 5.241 0 2.112.696 3.86 2.087 5.24 1.39 1.382 3.15 2.073 5.277 2.073ZM68.727 29.25h26.51L78.79 9.75H68.727v19.5Z"/></svg>
